svgs/light/file-circle-exclamation.svg

<svg xmlns="http://www.w3.org/2000/svg" viewBox="0 0 576 512"><!--! Font Awesome Pro 6.4.2 by @fontawesome - https://fontawesome.com License - https://fontawesome.com/license (Commercial License) Copyright 2023 Fonticons, Inc. --><path d="M64 480H296.2c9.8 11.8 21 22.3 33.5 31.3c-3.2 .5-6.4 .7-9.7 .7H64c-35.3 0-64-28.7-64-64V64C0 28.7 28.7 0 64 0H220.1c12.7 0 24.9 5.1 33.9 14.1L369.9 129.9c9 9 14.1 21.2 14.1 33.9v34.7c-11.2 3.2-21.9 7.4-32 12.6V192H240c-26.5 0-48-21.5-48-48V32H64C46.3 32 32 46.3 32 64V448c0 17.7 14.3 32 32 32zM351.5 160c-.7-2.8-2.1-5.4-4.2-7.4L231.4 36.7c-2.1-2.1-4.6-3.5-7.4-4.2V144c0 8.8 7.2 16 16 16H351.5zM544 368a112 112 0 1 0 -224 0 112 112 0 1 0 224 0zm-256 0a144 144 0 1 1 288 0 144 144 0 1 1 -288 0zm144 32a24 24 0 1 1 0 48 24 24 0 1 1 0-48zm0-112c8.8 0 16 7.2 16 16v64c0 8.8-7.2 16-16 16s-16-7.2-16-16V304c0-8.8 7.2-16 16-16z"/></svg>

<svg xmlns="http://www.w3.org/2000/svg" viewBox="0 0 576 512"><!--! Font Awesome Pro 6.1.1 by @fontawesome - https://fontawesome.com License - https://fontawesome.com/license (Commercial License) Copyright 2022 Fonticons, Inc. --><path d="M64 480H296.2C305.1 491.8 317.3 502.3 329.7 511.3C326.6 511.7 323.3 512 320 512H64C28.65 512 0 483.3 0 448V64C0 28.65 28.65 0 64 0H220.1C232.8 0 245.1 5.057 254.1 14.06L369.9 129.9C378.9 138.9 384 151.2 384 163.9V198.6C372.8 201.8 362.1 206 352 211.2V192H240C213.5 192 192 170.5 192 144V32H64C46.33 32 32 46.33 32 64V448C32 465.7 46.33 480 64 480V480zM347.3 152.6L231.4 36.69C229.4 34.62 226.8 33.18 224 32.48V144C224 152.8 231.2 160 240 160H351.5C350.8 157.2 349.4 154.6 347.3 152.6zM408 424C408 410.7 418.7 400 432 400C445.3 400 456 410.7 456 424C456 437.3 445.3 448 432 448C418.7 448 408 437.3 408 424zM431.1 288C440.8 288 447.1 295.2 447.1 304V368C447.1 376.8 440.8 384 431.1 384C423.2 384 415.1 376.8 415.1 368V304C415.1 295.2 423.2 288 431.1 288zM576 368C576 447.5 511.5 512 432 512C352.5 512 288 447.5 288 368C288 288.5 352.5 224 432 224C511.5 224 576 288.5 576 368zM432 256C370.1 256 320 306.1 320 368C320 429.9 370.1 480 432 480C493.9 480 544 429.9 544 368C544 306.1 493.9 256 432 256z"/></svg>
